X: 14170
T: From Scotia's Shores We're Noo Awa'
R: strathspey
M: 4/4
K: Dmajor
|:F<A f>e d<e B>d|A>F E>D C<E E>G|F<A f>e d2 B>d|
[1 Ad c/d/e/c/ d3 c/A/:|2 Ad c/d/e/c/ d3 f/g/||
a>f d>f e>d B<d|A>B d>e f>d e<f|d>e f>g a>b a>f|
(3gfe f>d e<e e>B|d>e f>g a>b a>f|
g/f/g/a/ b>g e2 a>g|f<a d<f B<d G<B|A>d c/d/e/c/ d4||

